src/assets/duotone/NoteAdd.svg

<?xml version="1.0" encoding="UTF-8"?>
<svg width="24" height="24" viewBox="0 0 24 24" xmlns="http://www.w3.org/2000/svg">
 <path d="m7.37 22h9.25c2.69 0 4.87-2.18 4.87-4.87v-8.76c0-2.69-2.18-4.87-4.87-4.87h-9.25c-2.69 0-4.87 2.18-4.87 4.87v8.75c0 2.7 2.18 4.88 4.87 4.88z" opacity=".4"/>
 <path d="m8.29 6.29c-0.42 0-0.75-0.34-0.75-0.75v-2.79c0-0.41 0.33-0.75 0.75-0.75s0.75 0.34 0.75 0.75v2.78c0 0.42-0.33 0.76-0.75 0.76z"/>
 <path d="m15.71 6.29c-0.42 0-0.75-0.34-0.75-0.75v-2.79c0-0.42 0.34-0.75 0.75-0.75 0.42 0 0.75 0.34 0.75 0.75v2.78c0 0.42-0.33 0.76-0.75 0.76z"/>
 <path d="m12 14.75h-1.69v-1.75c0-0.41-0.34-0.75-0.75-0.75s-0.75 0.34-0.75 0.75v1.75h-1.81c-0.41 0-0.75 0.34-0.75 0.75s0.34 0.75 0.75 0.75h1.81v1.75c0 0.41 0.34 0.75 0.75 0.75s0.75-0.34 0.75-0.75v-1.75h1.69c0.41 0 0.75-0.34 0.75-0.75s-0.34-0.75-0.75-0.75z"/>
</svg>

<svg width="24" height="24" viewBox="0 0 24 24"  xmlns="http://www.w3.org/2000/svg">
<path opacity="0.4" d="M7.37 22H16.62C19.31 22 21.49 19.82 21.49 17.13V8.37C21.49 5.68 19.31 3.5 16.62 3.5H7.37C4.68 3.5 2.5 5.68 2.5 8.37V17.12C2.5 19.82 4.68 22 7.37 22Z" />
<path d="M8.29004 6.29C7.87004 6.29 7.54004 5.95 7.54004 5.54V2.75C7.54004 2.34 7.87004 2 8.29004 2C8.71004 2 9.04004 2.34 9.04004 2.75V5.53C9.04004 5.95 8.71004 6.29 8.29004 6.29Z" />
<path d="M15.71 6.29C15.29 6.29 14.96 5.95 14.96 5.54V2.75C14.96 2.33 15.3 2 15.71 2C16.13 2 16.46 2.34 16.46 2.75V5.53C16.46 5.95 16.13 6.29 15.71 6.29Z" />
<path d="M12 14.75H10.31V13C10.31 12.59 9.97 12.25 9.56 12.25C9.15 12.25 8.81 12.59 8.81 13V14.75H7C6.59 14.75 6.25 15.09 6.25 15.5C6.25 15.91 6.59 16.25 7 16.25H8.81V18C8.81 18.41 9.15 18.75 9.56 18.75C9.97 18.75 10.31 18.41 10.31 18V16.25H12C12.41 16.25 12.75 15.91 12.75 15.5C12.75 15.09 12.41 14.75 12 14.75Z" />
</svg>
